X: 020553
T: Blackbird
S: Treoir 
Z: B.Black
M: 4/4
L: 1/8
R: reel
K: D
dcAF G2 FG | Adde fded | dcAF G2 FG | AFGE FD D2 |
dcAF G2 FG | Adde fded | dcAF G2 FG | AFGE FDDA ||
defg agfa | gfga gfef | defg a2 (3efg | afge fddf |
agfe gfec | dcde f2 ec | dcAF G2 FG | AFGE FDDA ||
